tools/download-figma-icons/icons/outlined-medium/wind-power.svg

<svg width="24" height="24" viewBox="0 0 24 24" fill="none" xmlns="http://www.w3.org/2000/svg">
<path fill-rule="evenodd" clip-rule="evenodd" d="M21.5988 18.4103L14.3268 14.211C14.5638 13.9268 14.7415 13.596 14.8443 13.2293L16.3495 13.5383L21.7195 18.201L21.5988 18.4103ZM11.1205 12.513C11.1205 11.8695 11.6448 11.346 12.2875 11.346C12.931 11.346 13.4553 11.8695 13.4553 12.513C13.4553 13.1558 12.931 13.6793 12.2875 13.6793C11.6448 13.6793 11.1205 13.1558 11.1205 12.513ZM9.36776 15.5183L2.64551 17.8373L2.52476 17.628L9.79376 13.431C9.92576 13.7865 10.123 14.109 10.3833 14.3745L9.36776 15.5183ZM12.739 1.5V9.89175C12.5913 9.86625 12.442 9.846 12.2875 9.846C12.0588 9.846 11.8413 9.8835 11.6298 9.9375L11.1445 8.48175L12.4983 1.5H12.739ZM22.7665 17.124C24.4068 13.4107 23.9703 9.12375 21.5703 5.8005C21.328 5.46375 20.86 5.38875 20.5225 5.63175C20.1873 5.874 20.1123 6.34275 20.3545 6.67875C22.3473 9.4395 22.7815 12.9637 21.5725 16.0867L20.269 14.9557C20.6508 13.707 20.7535 12.3847 20.5293 11.091C20.458 10.683 20.0688 10.4107 19.6623 10.4805C19.2543 10.551 18.9805 10.9395 19.0518 11.3475C19.1965 12.1837 19.1733 13.035 19.0083 13.8607L17.1843 12.2767C17.0875 12.192 16.9698 12.1342 16.8438 12.1087L14.812 11.6917C14.6913 11.322 14.4978 10.9882 14.239 10.7085V0.75C14.239 0.33525 13.9038 0 13.489 0H11.8795C11.5203 0 11.2113 0.255 11.1438 0.6075L11.0418 1.1325C7.00526 1.56825 3.51101 4.089 1.83326 7.83C1.66376 8.20725 1.83326 8.65125 2.21051 8.82075C2.31026 8.865 2.41451 8.88675 2.51726 8.88675C2.80301 8.88675 3.07751 8.72175 3.20201 8.4435C4.59551 5.337 7.43051 3.1995 10.7403 2.68425L10.4118 4.37925C9.14051 4.6725 7.94426 5.244 6.93551 6.08475C6.61751 6.351 6.57476 6.8235 6.83951 7.14225C6.98876 7.32 7.20176 7.4115 7.41701 7.4115C7.58576 7.4115 7.75601 7.3545 7.89626 7.23825C8.54876 6.6945 9.29726 6.288 10.0938 6.0195L9.63476 8.3895C9.61001 8.51625 9.61826 8.646 9.65876 8.76975L10.3135 10.7362C10.06 11.0175 9.86951 11.3512 9.75401 11.7217L1.12526 16.704C0.76676 16.911 0.64376 17.3692 0.85076 17.7285L1.65551 19.1227C1.79276 19.3605 2.04326 19.4977 2.30501 19.4977C2.38676 19.4977 2.46926 19.485 2.55026 19.4572L3.05351 19.2832C5.21651 22.2427 8.63201 23.9685 12.277 23.9685C12.6693 23.9685 13.0638 23.949 13.459 23.9085C13.8715 23.8657 14.1715 23.4982 14.1295 23.0857C14.0868 22.674 13.7103 22.3792 13.3068 22.416C9.91301 22.7595 6.64901 21.375 4.55051 18.7672L6.18176 18.204C7.07201 19.158 8.16476 19.9072 9.39626 20.3617C9.48251 20.3932 9.56951 20.4075 9.65576 20.4075C9.96101 20.4075 10.2483 20.22 10.36 19.917C10.5025 19.5277 10.3038 19.0965 9.91526 18.954C9.11726 18.66 8.39201 18.2145 7.76051 17.6595L10.0435 16.872C10.165 16.8307 10.2738 16.7572 10.36 16.6612L11.7295 15.1185C11.9095 15.1567 12.0955 15.1792 12.2875 15.1792C12.4915 15.1792 12.688 15.1515 12.8793 15.1087L21.4983 20.0842C21.6138 20.1502 21.7428 20.1847 21.8733 20.1847C21.9385 20.1847 22.0038 20.1757 22.0675 20.1592C22.2595 20.1082 22.4238 19.9822 22.5228 19.8097L23.3283 18.4155C23.5075 18.1042 23.4415 17.709 23.17 17.4742L22.7665 17.124Z" fill="black"/>
</svg>

<svg xmlns="http://www.w3.org/2000/svg" width="24" height="24" fill="none" viewBox="0 0 24 24"><path fill="currentColor" fill-rule="evenodd" d="m21.599 18.41-7.272-4.199c.237-.284.415-.615.517-.982l1.505.31 5.37 4.662zM11.12 12.513c0-.643.524-1.167 1.166-1.167.644 0 1.168.524 1.168 1.167s-.524 1.166-1.168 1.166a1.17 1.17 0 0 1-1.167-1.166m-1.753 3.005-6.722 2.32-.121-.21 7.269-4.197c.132.356.329.678.59.944zM12.739 1.5v8.392a2.6 2.6 0 0 0-.452-.046c-.228 0-.446.037-.657.091l-.486-1.455L12.499 1.5zm10.028 15.624c1.64-3.713 1.203-8-1.197-11.323a.75.75 0 1 0-1.215.878 9.91 9.91 0 0 1 1.218 9.408l-1.304-1.131a8.34 8.34 0 0 0 .26-3.865.75.75 0 1 0-1.477.257 6.9 6.9 0 0 1-.044 2.513l-1.824-1.584a.74.74 0 0 0-.34-.168l-2.032-.417a2.65 2.65 0 0 0-.573-.983V.75a.75.75 0 0 0-.75-.75h-1.61a.75.75 0 0 0-.735.608l-.102.525A11.4 11.4 0 0 0 1.833 7.83a.75.75 0 0 0 1.369.614 9.91 9.91 0 0 1 7.538-5.76l-.328 1.695a8.35 8.35 0 0 0-3.476 1.706.752.752 0 0 0 .481 1.327.75.75 0 0 0 .48-.174 6.8 6.8 0 0 1 2.197-1.219l-.46 2.37a.75.75 0 0 0 .025.38l.654 1.967a2.6 2.6 0 0 0-.559.986l-8.629 4.982a.75.75 0 0 0-.274 1.024l.805 1.395a.75.75 0 0 0 .894.334l.504-.174a11.4 11.4 0 0 0 9.223 4.685q.589 0 1.182-.06a.75.75 0 0 0 .67-.822.76.76 0 0 0-.822-.67 9.91 9.91 0 0 1-8.756-3.649l1.63-.563a8.4 8.4 0 0 0 3.215 2.158.75.75 0 0 0 .964-.445.75.75 0 0 0-.445-.963 6.9 6.9 0 0 1-2.154-1.294l2.282-.788a.75.75 0 0 0 .317-.21l1.37-1.543q.27.059.557.06c.204 0 .401-.027.592-.07l8.62 4.975a.76.76 0 0 0 .569.075.75.75 0 0 0 .455-.35l.805-1.393a.75.75 0 0 0-.158-.942z" clip-rule="evenodd"/></svg>
